X:1
T:Title
%%score { ( 1 3 ) | ( 2 4 ) }
L:1/8
M:4/4
K:Bb
V:1 treble nm="Grand Piano"
V:3 treble 
V:2 bass 
V:4 bass 
V:1
 z4 z2[Q:1/4=100] [Fd]>[Ec] | [DB]2 [DF]2 [EG]2 [DF]2 | BAGF G2 F2 | z4 z2 d2 | %4
[M:9/8] edc B c2- c[Fd]>[=Ec] |[M:4/4] [DB]2 [DF]2 [EG]2 [DF]2 | BAGF G2 F2 | d3 d d2 [FB]2 | %8
[M:7/8] ccB A [DB]3 |[M:1/4] [DB]>[Ec] |[M:4/4] [Fd]4 z4 | B4 z4[K:bass] | d2 d>d edcB | c6 z2 | %14
 [Fd]4 z4 | B4 z4 | [Fd]3 [Fe] [Fd][EGc][DFB][CEA] |[M:3/4] B6 |] %18
V:2
 z4 z2 [B,,B,]>[B,,B,] | [B,,B,]2 [B,,B,]2 [B,,B,]2 [B,,B,]2 | B,A,G,F, G,2 F,2 | %3
 [B,F]3 [B,F] [B,F]2 FD | %4
[M:9/8] [CFA][B,FB][A,F][K:bass] [G,C=E] [F,A,F]2- [F,A,F][B,,B,]>[B,,B,] | %5
[M:4/4] [B,,B,]2 [B,,B,]2 [B,,B,]2 [B,,B,]2 | B,A,G,F, G,2 F,2 | %7
 [B,F]3 [B,F] [B,F]2[K:bass] [D,B,]2 |[M:7/8] [E,G,E][E,G,E][F,D] [F,C] [B,,F,]3 | %9
[M:1/4] [B,,F,]>[B,,F,] |[M:4/4] [B,,B,]>B,, D,>F,[K:treble] [B,D]2 [B,DF]>[B,DF] | %11
 [B,D]2 z2[K:bass] z4 | z4 .[CA]2 z2[K:bass] | F6 z2 | %14
 [B,,A,]>B,, D,>F,[K:treble] [B,D]2 [B,DF]>[B,DF] | F4[K:bass] z4 | [B,,B,]3 [C,A,] [D,B,]E,F,F, | %17
[M:3/4] z2 G,>G, F,2 |] %18
V:3
 x8 | x8 | x8 | d3 d d2 z B |[M:9/8] x9 |[M:4/4] x8 | x8 | x8 |[M:7/8] x7 |[M:1/4] x2 | %10
[M:4/4] z z/ B,/ B,>B, B2 B>B | z z/ D/ D>B, [B,DF]2[K:bass] D,>F, | x8 | %13
 z2 A,>B, A,C [B,FB]>[Fc] | z z/ B,/ B,>B, B2 B>B | z z/ D/ D>B, [B,DF]2 [B,FB]>[Fc] | x8 | %17
[M:3/4] [B,D]2 E>E D2 |] %18
V:4
 x8 | x8 | x8 | z4 z2 B,2 |[M:9/8] x3[K:bass] x6 |[M:4/4] x8 | x8 | x6[K:bass] x2 |[M:7/8] x7 | %9
[M:1/4] x2 |[M:4/4] x4[K:treble] x4 | F->[B,F-] [F,F-]>[D,F][K:bass] B,,2 z2 | %12
 [B,F]2 [B,F]>[B,DB] F-[B,FB][A,F][K:bass][G,C=E] | [F,A,]2 F,>G, F,E, D,>[C,A,] | %14
 x4[K:treble] x4 | [B,D]>B,[K:bass] F,>D, B,,2 D,>[C,A,] | x8 |[M:3/4] B,,6 |] %18

